assets/svg/icon-sprite.svg

<svg xmlns="http://www.w3.org/2000/svg" style="display: none;">
  <symbol id="fast" viewBox="0 0 512.004 512.004">
    <title>shuttle</title>
    <path d="m221.799 139.528c-2.922-4.879-8.353-7.68-14.024-7.249l-121.895 9.416c-12.341.954-23.334 7.422-30.162 17.748l-51.155 77.372c-5.177 7.831-6.001 17.63-2.203 26.214 3.797 8.584 11.602 14.565 20.877 16.002l98.84 15.309c.769.119 1.537.178 2.299.178 5.063-.001 9.853-2.568 12.636-6.922l84.557-132.283c3.063-4.793 3.151-10.905.23-15.785z" fill="#e45a6e" />
    <path d="m372.475 290.205c-4.88-2.922-10.993-2.833-15.785.23l-132.282 84.557c-5.009 3.202-7.654 9.06-6.745 14.935l15.308 98.84c1.437 9.276 7.419 17.08 16.004 20.878 3.57 1.579 7.35 2.358 11.112 2.358 5.281 0 10.528-1.538 15.101-4.561l77.373-51.156c10.326-6.826 16.795-17.82 17.747-30.162l9.416-121.894c.439-5.671-2.369-11.102-7.249-14.025z" fill="#d82e44" />
    <path d="m192.87 412.278c5.97 5.97 14.453 8.763 22.78 7.37 122.112-20.418 218.741-121.522 255.528-192.645 40.849-78.974 42.362-162.43 40.227-201.57-.732-13.412-11.423-24.103-24.835-24.835-39.14-2.134-122.595-.621-201.57 40.228-71.122 36.787-172.226 133.416-192.644 255.528-1.392 8.327 1.4 16.81 7.37 22.78z" fill="#f1f1fb" />
    <path d="m503.743 8.261-357.445 357.445 46.572 46.572c5.97 5.97 14.453 8.762 22.78 7.37 122.112-20.418 218.741-121.522 255.528-192.644 40.849-78.974 42.362-162.43 40.227-201.57-.366-6.706-3.222-12.732-7.662-17.173z" fill="#d7d6fb" />
    <path d="m350.731 236.238c-19.209.001-38.41-7.309-53.033-21.932-14.166-14.165-21.968-33-21.968-53.033s7.802-38.868 21.968-53.033c29.241-29.242 76.822-29.243 106.065 0 14.166 14.165 21.967 33 21.967 53.033s-7.801 38.868-21.967 53.033c-14.619 14.62-33.829 21.93-53.032 21.932zm-42.427-117.391h.01z" fill="#466288" />
    <path d="m92.356 296.354c-1.392 8.327 1.4 16.81 7.37 22.78l93.144 93.144c5.97 5.97 14.453 8.762 22.78 7.37 26.571-4.443 51.933-12.709 75.737-23.652l-175.379-175.378c-10.943 23.803-19.209 49.166-23.652 75.736z" fill="#466288" />
    <path d="m15.304 421.938c3.838 0 7.678-1.465 10.606-4.394l48.973-48.973c5.858-5.857 5.858-15.355 0-21.213-5.857-5.858-15.354-5.858-21.213 0l-48.972 48.973c-5.858 5.857-5.858 15.355 0 21.213 2.929 2.93 6.767 4.394 10.606 4.394z" fill="#fdb43a" />
    <path d="m119.764 392.24c-5.857-5.857-15.355-5.857-21.213 0l-94.154 94.154c-5.858 5.857-5.858 15.355 0 21.213 2.929 2.929 6.768 4.393 10.607 4.393s7.678-1.465 10.606-4.394l94.154-94.154c5.858-5.857 5.858-15.355 0-21.212z" fill="#fdb43a" />
    <path d="m164.645 437.121c-5.857-5.857-15.355-5.857-21.213 0l-48.972 48.972c-5.858 5.857-5.858 15.355 0 21.213 2.929 2.929 6.768 4.394 10.606 4.394s7.678-1.465 10.606-4.394l48.973-48.973c5.858-5.857 5.858-15.355 0-21.212z" fill="#f57a21" />
    <path d="m4.397 507.607c2.929 2.929 6.768 4.393 10.607 4.393s7.678-1.465 10.606-4.394l94.154-94.154c5.858-5.857 5.858-15.355 0-21.213z" fill="#f57a21" />
    <path d="m146.298 365.706 46.572 46.572c5.97 5.97 14.453 8.762 22.78 7.37 26.571-4.443 51.933-12.709 75.737-23.652l-87.689-87.689z" fill="#354a67" />
    <path d="m297.698 214.306c14.623 14.623 33.824 21.934 53.033 21.932 19.203-.002 38.413-7.313 53.032-21.932 14.166-14.166 21.967-33 21.967-53.033s-7.801-38.868-21.967-53.033z" fill="#354a67" />
    <path d="m350.73 116.295c-11.523 0-23.047 4.386-31.819 13.159-8.499 8.499-13.181 19.799-13.181 31.819s4.682 23.32 13.181 31.819c17.545 17.545 46.095 17.546 63.64 0 8.499-8.5 13.18-19.8 13.18-31.82s-4.681-23.32-13.18-31.819c-8.773-8.772-20.296-13.158-31.821-13.158z" fill="#4bbefd" />
    <path d="m382.55 129.454-63.639 63.639c17.545 17.545 46.095 17.546 63.639 0 8.499-8.5 13.18-19.8 13.18-31.82s-4.68-23.32-13.18-31.819z" fill="#0590fb" />
  </symbol>
  <symbol id="low-cost" viewBox="0 0 512 512">
    <title>price-tag</title>
    <path d="m212.99 512c-3.978 0-7.793-1.58-10.606-4.394l-197.991-197.99c-5.858-5.857-5.858-15.355 0-21.213l240.417-240.416c3.096-3.097 7.39-4.686 11.757-4.35l183.847 14.143c7.377.567 13.238 6.429 13.805 13.806l14.142 183.848c.336 4.366-1.252 8.661-4.349 11.757l-240.416 240.415c-2.813 2.814-6.628 4.394-10.606 4.394z" fill="#ff858f" data-original="#FF858F" class="" />
    <path d="m464.013 267.19c3.097-3.096 4.685-7.391 4.349-11.757l-14.142-183.847c-.284-3.688-1.891-6.998-4.349-9.457l-346.483 346.482 98.995 98.995c2.813 2.813 6.628 4.394 10.606 4.394s7.793-1.58 10.606-4.394z" fill="#fa575a" data-original="#FA575A" class="" />
    <path d="m331.777 295.223h-200c-8.284 0-15-6.716-15-15s6.716-15 15-15h200c8.284 0 15 6.716 15 15s-6.716 15-15 15z" fill="#e3f5ff" data-original="#E3F5FF" />
    <path d="m231.777 245.223c-24.813 0-45-20.187-45-45s20.187-45 45-45 45 20.187 45 45-20.187 45-45 45zm0-60c-8.271 0-15 6.729-15 15s6.729 15 15 15 15-6.729 15-15-6.729-15-15-15z" fill="#e3f5ff" data-original="#E3F5FF" />
    <g fill="#c6e1f5">
      <path d="m231.777 405.223c-24.813 0-45-20.187-45-45s20.187-45 45-45 45 20.187 45 45-20.187 45-45 45zm0-60c-8.271 0-15 6.729-15 15s6.729 15 15 15 15-6.729 15-15-6.729-15-15-15z" data-original="#C6E1F5" class="active-path" style="fill:#D7D6FB" data-old_color="#C6E1F5" />
      <path d="m331.777 295.223c8.284 0 15-6.716 15-15s-6.716-15-15-15h-85l-30 30z" data-original="#C6E1F5" class="active-path" style="fill:#D7D6FB" data-old_color="#C6E1F5" />
      <path d="m365.018 125.769 121.375-121.376c5.857-5.857 15.355-5.857 21.213 0s5.858 15.355 0 21.213l-121.375 121.376z" data-original="#C6E1F5" class="active-path" style="fill:#D7D6FB" data-old_color="#C6E1F5" />
    </g>
    <path d="m386.231 146.982 121.375-121.376c5.858-5.857 5.858-15.355 0-21.213l-131.982 131.982z" fill="#aacce4" data-original="#AACCE4" class="" />
    <path d="m393.302 169.052c-3.839 0-7.677-1.465-10.606-4.394l-35.355-35.354c-5.858-5.857-5.858-15.354 0-21.213 5.858-5.857 15.355-5.857 21.213 0l35.355 35.354c5.858 5.857 5.858 15.354 0 21.213-2.929 2.93-6.768 4.394-10.607 4.394z" fill="#e3f5ff" data-original="#E3F5FF" />
    <path d="m382.696 164.659c2.929 2.929 6.768 4.394 10.606 4.394s7.678-1.465 10.607-4.394c5.857-5.858 5.857-15.355 0-21.213l-17.678-17.677-21.213 21.213z" fill="#c6e1f5" data-original="#C6E1F5" class="active-path" style="fill:#D7D6FB" data-old_color="#c6e1f5" />
  </symbol>
  <symbol id="secure" viewBox="0 0 512 512">
    <title>protection</title>
    <circle style="fill:#D7D6FB" cx="256" cy="256" r="256" data-original="#F1F1FB" class="active-path" data-old_color="#F1F1FB" />
    <path style="fill:#F70325" d="M478.995,165.789c0,146.994-92.807,272.291-222.994,320.578 C125.79,438.081,33.005,312.784,33.005,165.789c0-47.298,9.597-92.347,26.979-133.309c9.071,8.287,18.591,16.092,28.519,23.375 c49.475,36.288,117.226,36.058,166.641-0.31c0.285-0.21,0.571-0.421,0.856-0.632c0.256,0.19,0.512,0.379,0.769,0.568 c49.409,36.432,117.218,36.664,166.712,0.349c9.923-7.281,19.44-15.085,28.511-23.373 C469.374,73.418,478.995,118.49,478.995,165.789z" data-original="#F70325" class="" data-old_color="#1AB0AE" />
    <path style="fill:#F34A4A" d="M65.393,165.793c0,64.439,19.613,126.192,56.717,178.584c33.97,47.961,80.081,84.825,133.883,107.196 h0.01c53.812-22.371,99.913-59.235,133.883-107.196c37.104-52.391,56.717-114.145,56.717-178.584 c0-27.115-3.448-53.687-10.261-79.402c-28.39,18.965-61.367,28.944-95.869,28.944c-29.947,0-58.765-7.513-84.47-21.88 c-25.684,14.357-54.502,21.87-84.449,21.87c-34.513,0-67.5-9.979-95.89-28.954C68.841,112.106,65.393,138.678,65.393,165.793z" data-original="#F34A4A" class="" data-old_color="#58D1C1" />
    <path style="fill:#FF7084" d="M256.003,93.455v358.118c53.812-22.371,99.913-59.235,133.883-107.196 c37.104-52.391,56.717-114.145,56.717-178.584c0-27.115-3.448-53.687-10.261-79.402c-28.39,18.965-61.367,28.944-95.869,28.944 C310.526,115.335,281.708,107.822,256.003,93.455z" data-original="#FF7084" class="" data-old_color="#6DE8C3" />
    <polygon style="fill:#D7D6FB" points="246.824,352.136 152.446,257.759 184.218,225.987 244.999,286.769 361.598,156.371 395.093,186.321 " data-original="#F2F2F7" class="" data-old_color="#F2F2F7" />
  </symbol>
  <symbol id="task" viewBox="0 0 512 512">
    <title>task</title>
    <path d="m32 16h352c17.671875 0 32 14.328125 32 32v432c0 17.671875-14.328125 32-32 32h-352c-17.671875 0-32-14.328125-32-32v-432c0-17.671875 14.328125-32 32-32zm0 0" fill="#ecce93" data-original="#ECCE93" class="active-path" style="fill:#7795F8" data-old_color="#ecce93" />
    <path d="m32 374.625v-326.625h352v432h-246.625zm0 0" fill="#efefef" data-original="#EFEFEF" class="" />
    <path d="m137.375 374.625v105.375l-105.375-105.375zm0 0" fill="#e76e54" data-original="#E76E54" class="" />
    <path d="m128 64v-64h160v64c0 17.671875-14.328125 32-32 32h-96c-17.671875 0-32-14.328125-32-32zm0 0" fill="#e76e54" data-original="#E76E54" class="" />
    <path d="m512 368c0 79.527344-64.472656 144-144 144s-144-64.472656-144-144 64.472656-144 144-144 144 64.472656 144 144zm0 0" fill="#48c8ef" data-original="#48C8EF" class="" />
    <path d="m335.007812 429.648438-31.007812-31.023438c-6.246094-6.25-6.246094-16.378906 0-22.625s16.375-6.246094 22.625 0l10.367188 10.351562 72.464843-60.398437c6.789063-5.664063 16.886719-4.746094 22.542969 2.046875 5.664062 6.789062 4.746094 16.886719-2.046875 22.542969zm0 0" fill="#fff" data-original="#FFF" class="" />
    <g fill="#77959e">
      <path d="m176 128h128c8.835938 0 16 7.164062 16 16s-7.164062 16-16 16h-128c-8.835938 0-16-7.164062-16-16s7.164062-16 16-16zm0 0" data-original="#77959E" class="" style="fill:#77959E" />
      <path d="m96 128h32v32h-32zm0 0" data-original="#77959E" class="" style="fill:#77959E" />
      <path d="m96 192h32v32h-32zm0 0" data-original="#77959E" class="" style="fill:#77959E" />
      <path d="m96 256h32v32h-32zm0 0" data-original="#77959E" class="" style="fill:#77959E" />
      <path d="m96 320h32v32h-32zm0 0" data-original="#77959E" class="" style="fill:#77959E" />
      <path d="m176 192h96c8.835938 0 16 7.164062 16 16s-7.164062 16-16 16h-96c-8.835938 0-16-7.164062-16-16s7.164062-16 16-16zm0 0" data-original="#77959E" class="" style="fill:#77959E" />
      <path d="m176 256h32c8.835938 0 16 7.164062 16 16s-7.164062 16-16 16h-32c-8.835938 0-16-7.164062-16-16s7.164062-16 16-16zm0 0" data-original="#77959E" class="" style="fill:#77959E" />
    </g>
  </symbol>
</svg>

<svg xmlns="http://www.w3.org/2000/svg" style="display: none;">
  <symbol id="fast" viewBox="0 0 512 512">
    <title>fast</title>
    <path d="M221.8,139.53a15,15,0,0,0-14-7.25L85.88,141.69a39.62,39.62,0,0,0-30.16,17.75L4.56,236.81A27.42,27.42,0,0,0,23.24,279l98.84,15.31a14.85,14.85,0,0,0,2.3.18A15,15,0,0,0,137,287.59l84.56-132.28A15,15,0,0,0,221.8,139.53Z" fill="#226bc5" />
    <path d="M372.47,290.2a15,15,0,0,0-15.78.23L224.41,375a15,15,0,0,0-6.75,14.93L233,488.76a27.4,27.4,0,0,0,42.22,18.68l77.37-51.16a39.61,39.61,0,0,0,17.75-30.16l9.41-121.89a15,15,0,0,0-7.25-14Z" fill="#226bc5" />
    <path d="M192.87,412.27a26.14,26.14,0,0,0,22.78,7.37C337.76,399.23,434.39,298.12,471.17,227,512,148,513.54,64.57,511.4,25.43A26.28,26.28,0,0,0,486.57.6C447.43-1.54,364,0,285,40.83,213.88,77.61,112.77,174.24,92.36,296.35a26.14,26.14,0,0,0,7.37,22.78Z" fill="#ccdaf8" />
    <path d="M503.74,8.26,146.3,365.7l46.57,46.57a26.14,26.14,0,0,0,22.78,7.37C337.76,399.23,434.39,298.12,471.17,227,512,148,513.54,64.57,511.4,25.43a26.27,26.27,0,0,0-7.66-17.17Z" fill="#226bc5" />
    <path d="M92.36,296.35a26.14,26.14,0,0,0,7.37,22.78l93.14,93.14a26.14,26.14,0,0,0,22.78,7.37A299.35,299.35,0,0,0,291.38,396L116,220.62A299.35,299.35,0,0,0,92.36,296.35Z" fill="#226bc5" />
    <path d="M15.3,421.93a15,15,0,0,0,10.61-4.39l49-49a15,15,0,0,0-21.21-21.21l-49,49a15,15,0,0,0,10.6,25.6Z" fill="#ccdaf8" />
    <path d="M119.76,392.24a15,15,0,0,0-21.21,0L4.4,486.39A15,15,0,1,0,25.61,507.6l94.15-94.15A15,15,0,0,0,119.76,392.24Z" fill="#ccdaf8" />
    <path d="M164.64,437.12a15,15,0,0,0-21.21,0l-49,49a15,15,0,1,0,21.21,21.21l49-49a15,15,0,0,0,0-21.21Z" fill="#226bc5" />
    <path d="M4.4,507.6a15,15,0,0,0,21.21,0l94.15-94.15a15,15,0,0,0,0-21.21Z" fill="#226bc5" />
    <path d="M146.3,365.7l46.57,46.57a26.14,26.14,0,0,0,22.78,7.37A299.35,299.35,0,0,0,291.38,396L203.7,308.3Z" fill="#226bc5" />
    <path d="M297.7,214.3A75,75,0,1,0,403.76,108.24Z" fill="#226bc5" />
    <polygon points="127.48 197.92 314.57 384.8 291.38 395.99 116.01 220.62 127.48 197.92" fill="#fcfcfc" />
  </symbol>
  <symbol id="low-cost" viewBox="0 0 512 512">
    <title>low-cost</title>
    <path d="m212.99 512c-3.978 0-7.793-1.58-10.606-4.394l-197.991-197.99c-5.858-5.857-5.858-15.355 0-21.213l240.417-240.416c3.096-3.097 7.39-4.686 11.757-4.35l183.847 14.143c7.377.567 13.238 6.429 13.805 13.806l14.142 183.848c.336 4.366-1.252 8.661-4.349 11.757l-240.416 240.415c-2.813 2.814-6.628 4.394-10.606 4.394z" fill="#ff858f" data-original="#FF858F" class="" style="fill:#CCDAF8" data-old_color="#ff858f" />
    <path d="m464.013 267.19c3.097-3.096 4.685-7.391 4.349-11.757l-14.142-183.847c-.284-3.688-1.891-6.998-4.349-9.457l-346.483 346.482 98.995 98.995c2.813 2.813 6.628 4.394 10.606 4.394s7.793-1.58 10.606-4.394z" fill="#fa575a" data-original="#FA575A" class="" style="fill:#226BC5" data-old_color="#fa575a" />
    <path d="m331.777 295.223h-200c-8.284 0-15-6.716-15-15s6.716-15 15-15h200c8.284 0 15 6.716 15 15s-6.716 15-15 15z" fill="#e3f5ff" data-original="#E3F5FF" class="" style="fill:#FFFFFF" data-old_color="#e3f5ff" />
    <path d="m231.777 245.223c-24.813 0-45-20.187-45-45s20.187-45 45-45 45 20.187 45 45-20.187 45-45 45zm0-60c-8.271 0-15 6.729-15 15s6.729 15 15 15 15-6.729 15-15-6.729-15-15-15z" fill="#e3f5ff" data-original="#E3F5FF" class="" style="fill:#FFFFFF" data-old_color="#e3f5ff" />
    <g fill="#c6e1f5">
      <path d="m231.777 405.223c-24.813 0-45-20.187-45-45s20.187-45 45-45 45 20.187 45 45-20.187 45-45 45zm0-60c-8.271 0-15 6.729-15 15s6.729 15 15 15 15-6.729 15-15-6.729-15-15-15z" data-original="#D7D6FB" class="" style="fill:#FFFFFF" data-old_color="#D7D6FB" />
      <path d="m331.777 295.223c8.284 0 15-6.716 15-15s-6.716-15-15-15h-85l-30 30z" data-original="#D7D6FB" class="" style="fill:#FFFFFF" data-old_color="#D7D6FB" />
      <path d="m365.018 125.769 121.375-121.376c5.857-5.857 15.355-5.857 21.213 0s5.858 15.355 0 21.213l-121.375 121.376z" data-original="#D7D6FB" class="" style="fill:#FFFFFF" data-old_color="#D7D6FB" />
    </g>
    <path d="m386.231 146.982 121.375-121.376c5.858-5.857 5.858-15.355 0-21.213l-131.982 131.982z" fill="#aacce4" data-original="#AACCE4" class="active-path" style="fill:#CCDAF8" data-old_color="#aacce4" />
    <path d="m393.302 169.052c-3.839 0-7.677-1.465-10.606-4.394l-35.355-35.354c-5.858-5.857-5.858-15.354 0-21.213 5.858-5.857 15.355-5.857 21.213 0l35.355 35.354c5.858 5.857 5.858 15.354 0 21.213-2.929 2.93-6.768 4.394-10.607 4.394z" fill="#e3f5ff" data-original="#E3F5FF" class="" style="fill:#FFFFFF" data-old_color="#e3f5ff" />
    <path d="m382.696 164.659c2.929 2.929 6.768 4.394 10.606 4.394s7.678-1.465 10.607-4.394c5.857-5.858 5.857-15.355 0-21.213l-17.678-17.677-21.213 21.213z" fill="#c6e1f5" data-original="#D7D6FB" class="" style="fill:#FFFFFF" data-old_color="#c6e1f5" />
  </symbol>
  <symbol id="secure" viewBox="0 0 512 512">
    <title>secure</title>
    <circle style="fill:#FFFFFF" cx="256" cy="256" r="256" data-original="#D7D6FB" class="" data-old_color="#D7D6FB" />
    <path style="fill:#226BC5" d="M478.995,165.789c0,146.994-92.807,272.291-222.994,320.578 C125.79,438.081,33.005,312.784,33.005,165.789c0-47.298,9.597-92.347,26.979-133.309c9.071,8.287,18.591,16.092,28.519,23.375 c49.475,36.288,117.226,36.058,166.641-0.31c0.285-0.21,0.571-0.421,0.856-0.632c0.256,0.19,0.512,0.379,0.769,0.568 c49.409,36.432,117.218,36.664,166.712,0.349c9.923-7.281,19.44-15.085,28.511-23.373 C469.374,73.418,478.995,118.49,478.995,165.789z" data-original="#F70325" class="active-path" data-old_color="#F70325" />
    <path style="fill:#226BC5" d="M65.393,165.793c0,64.439,19.613,126.192,56.717,178.584c33.97,47.961,80.081,84.825,133.883,107.196 h0.01c53.812-22.371,99.913-59.235,133.883-107.196c37.104-52.391,56.717-114.145,56.717-178.584 c0-27.115-3.448-53.687-10.261-79.402c-28.39,18.965-61.367,28.944-95.869,28.944c-29.947,0-58.765-7.513-84.47-21.88 c-25.684,14.357-54.502,21.87-84.449,21.87c-34.513,0-67.5-9.979-95.89-28.954C68.841,112.106,65.393,138.678,65.393,165.793z" data-original="#F34A4A" class="" data-old_color="#F34A4A" />
    <path style="fill:#CCDAF8" d="M256.003,93.455v358.118c53.812-22.371,99.913-59.235,133.883-107.196 c37.104-52.391,56.717-114.145,56.717-178.584c0-27.115-3.448-53.687-10.261-79.402c-28.39,18.965-61.367,28.944-95.869,28.944 C310.526,115.335,281.708,107.822,256.003,93.455z" data-original="#FF7084" class="" data-old_color="#FF7084" />
    <polygon style="fill:#FFFFFF" points="246.824,352.136 152.446,257.759 184.218,225.987 244.999,286.769 361.598,156.371 395.093,186.321 " data-original="#D7D6FB" class="" data-old_color="#D7D6FB" />
  </symbol>
  <symbol id="task" viewBox="0 0 512 512">
    <title>task</title>
    <path d="m32 16h352c17.671875 0 32 14.328125 32 32v432c0 17.671875-14.328125 32-32 32h-352c-17.671875 0-32-14.328125-32-32v-432c0-17.671875 14.328125-32 32-32zm0 0" fill="#ecce93" data-original="#7795F8" class="" style="fill:#226BC5" data-old_color="#ecce93" />
    <path d="m32 374.625v-326.625h352v432h-246.625zm0 0" fill="#efefef" data-original="#EFEFEF" class="" style="fill:#FFFFFF" data-old_color="#efefef" />
    <path d="m137.375 374.625v105.375l-105.375-105.375zm0 0" fill="#e76e54" data-original="#E76E54" class="active-path" style="fill:#CCDAF8" data-old_color="#e76e54" />
    <path d="m128 64v-64h160v64c0 17.671875-14.328125 32-32 32h-96c-17.671875 0-32-14.328125-32-32zm0 0" fill="#e76e54" data-original="#E76E54" class="active-path" style="fill:#CCDAF8" data-old_color="#e76e54" />
    <path d="m512 368c0 79.527344-64.472656 144-144 144s-144-64.472656-144-144 64.472656-144 144-144 144 64.472656 144 144zm0 0" fill="#48c8ef" data-original="#48C8EF" class="" style="fill:#226BC5" data-old_color="#48c8ef" />
    <path d="m335.007812 429.648438-31.007812-31.023438c-6.246094-6.25-6.246094-16.378906 0-22.625s16.375-6.246094 22.625 0l10.367188 10.351562 72.464843-60.398437c6.789063-5.664063 16.886719-4.746094 22.542969 2.046875 5.664062 6.789062 4.746094 16.886719-2.046875 22.542969zm0 0" fill="#fff" data-original="#FFF" class="" />
    <g fill="#77959e">
      <path d="m176 128h128c8.835938 0 16 7.164062 16 16s-7.164062 16-16 16h-128c-8.835938 0-16-7.164062-16-16s7.164062-16 16-16zm0 0" data-original="#77959E" class="" style="fill:#226BC5" data-old_color="#77959E" />
      <path d="m96 128h32v32h-32zm0 0" data-original="#77959E" class="" style="fill:#226BC5" data-old_color="#77959E" />
      <path d="m96 192h32v32h-32zm0 0" data-original="#77959E" class="" style="fill:#226BC5" data-old_color="#77959E" />
      <path d="m96 256h32v32h-32zm0 0" data-original="#77959E" class="" style="fill:#226BC5" data-old_color="#77959E" />
      <path d="m96 320h32v32h-32zm0 0" data-original="#77959E" class="" style="fill:#226BC5" data-old_color="#77959E" />
      <path d="m176 192h96c8.835938 0 16 7.164062 16 16s-7.164062 16-16 16h-96c-8.835938 0-16-7.164062-16-16s7.164062-16 16-16zm0 0" data-original="#77959E" class="" style="fill:#226BC5" data-old_color="#77959E" />
      <path d="m176 256h32c8.835938 0 16 7.164062 16 16s-7.164062 16-16 16h-32c-8.835938 0-16-7.164062-16-16s7.164062-16 16-16zm0 0" data-original="#77959E" class="" style="fill:#226BC5" data-old_color="#77959E" />
    </g>
  </symbol>
